; generated by Slic3r 1.3.0 on 2021-04-04 at 11:37:07

; external perimeters extrusion width = 0.55mm (7.28mm^3/s)
; perimeters extrusion width = 0.70mm (11.44mm^3/s)
; infill extrusion width = 0.63mm (13.45mm^3/s)
; solid infill extrusion width = 0.70mm (3.81mm^3/s)
; top infill extrusion width = 0.70mm (2.86mm^3/s)

M107
M104 S200 ; set temperature
G28 ; home all axes
G1 Z5 F5000 ; lift nozzle

; Filament gcode

M109 S200 ; set temperature and wait for it to be reached
G21 ; set units to millimeters
G90 ; use absolute coordinates
M82 ; use absolute distances for extrusion
G92 E0
G1 Z0.350 F7800.000
G1 E-2.00000 F2400.00000
G92 E0
G1 X84.979 Y85.777 F7800.000
G1 E2.00000 F2400.00000
G1 F1800
G1 X86.729 Y84.312 E2.06340
G1 X90.000 Y83.439 E2.15744
G1 X110.000 Y83.439 E2.71299
G1 X112.247 Y83.836 E2.77639
G1 X114.223 Y84.979 E2.83979
G1 X115.688 Y86.729 E2.90318
G1 X116.561 Y90.000 E2.99722
G1 X116.561 Y110.000 E3.55278
G1 X116.164 Y112.247 E3.61617
G1 X115.021 Y114.223 E3.67957
G1 X113.271 Y115.688 E3.74297
G1 X110.000 Y116.561 E3.83701
G1 X90.000 Y116.561 E4.39256
G1 X87.753 Y116.164 E4.45596
G1 X85.777 Y115.021 E4.51936
G1 X84.312 Y113.271 E4.58275
G1 X83.439 Y110.000 E4.67679
G1 X83.439 Y90.000 E5.23235
G1 X83.836 Y87.753 E5.29574
G1 X84.941 Y85.842 E5.35706
G1 E3.35706 F2400.00000
G92 E0
G1 X108.646 Y108.646 F7800.000
G1 E2.00000 F2400.00000
G1 F1800
G1 X91.354 Y108.646 E2.48034
G1 X91.354 Y91.354 E2.96067
G1 X108.646 Y91.354 E3.44101
G1 X108.646 Y108.571 E3.91926
G1 X109.207 Y109.207 F7800.000
G1 F1800
G1 X90.793 Y109.207 E4.43077
G1 X90.793 Y90.793 E4.94227
G1 X109.207 Y90.793 E5.45377
G1 X109.207 Y109.132 E5.96319
G1 X109.725 Y109.725 F7800.000
G1 F1800
G1 X90.275 Y109.725 E6.42054
G1 X90.275 Y90.275 E6.87789
G1 X109.725 Y90.275 E7.33524
G1 X109.725 Y109.650 E7.79082
G1 X109.242 Y109.596 F7800.000
G1 E5.79082 F2400.00000
G92 E0
G1 X107.867 Y108.303 F7800.000
G1 E2.00000 F2400.00000
G1 F1800
G1 X108.303 Y107.867 E2.01747
G1 X108.303 Y107.058 E2.04036
G1 X107.058 Y108.303 E2.09020
G1 X106.250 Y108.303 E2.11309
G1 X108.303 Y106.250 E2.19529
G1 X108.303 Y105.441 E2.21818
G1 X105.441 Y108.303 E2.33275
G1 X104.633 Y108.303 E2.35564
G1 X108.303 Y104.633 E2.50258
G1 X108.303 Y103.824 E2.52547
G1 X103.824 Y108.303 E2.70477
G1 X103.016 Y108.303 E2.72766
G1 X108.303 Y103.016 E2.93933
G1 X108.303 Y102.207 E2.96222
G1 X102.207 Y108.303 E3.20626
G1 X101.399 Y108.303 E3.22915
G1 X108.303 Y101.399 E3.50555
G1 X108.303 Y100.590 E3.52844
G1 X100.590 Y108.303 E3.83721
G1 X99.782 Y108.303 E3.86010
G1 X108.303 Y99.782 E4.20124
G1 X108.303 Y98.973 E4.22413
G1 X98.973 Y108.303 E4.59763
G1 X98.165 Y108.303 E4.62052
G1 X108.303 Y98.165 E5.02639
G1 X108.303 Y97.356 E5.04928
G1 X97.356 Y108.303 E5.48752
G1 X96.548 Y108.303 E5.51040
G1 X108.303 Y96.548 E5.98101
G1 X108.303 Y95.739 E6.00389
G1 X95.739 Y108.303 E6.50687
G1 X94.931 Y108.303 E6.52975
G1 X108.303 Y94.931 E7.06509
G1 X108.303 Y94.122 E7.08798
G1 X94.122 Y108.303 E7.65568
G1 X93.314 Y108.303 E7.67857
G1 X108.303 Y93.314 E8.27864
G1 X108.303 Y92.505 E8.30153
G1 X92.505 Y108.303 E8.93396
G1 X91.697 Y108.303 E8.95685
G1 X108.303 Y91.697 E9.62166
G1 X107.495 Y91.697 E9.64454
G1 X91.697 Y107.495 E10.27698
G1 X91.697 Y106.686 E10.29987
G1 X106.686 Y91.697 E10.89994
G1 X105.878 Y91.697 E10.92283
G1 X91.697 Y105.878 E11.49053
G1 X91.697 Y105.069 E11.51342
G1 X105.069 Y91.697 E12.04876
G1 X104.261 Y91.697 E12.07164
G1 X91.697 Y104.261 E12.57462
G1 X91.697 Y103.452 E12.59750
G1 X103.452 Y91.697 E13.06811
G1 X102.644 Y91.697 E13.09100
G1 X91.697 Y102.644 E13.52924
G1 X91.697 Y101.835 E13.55212
G1 X101.835 Y91.697 E13.95800
G1 X101.027 Y91.697 E13.98088
G1 X91.697 Y101.027 E14.35439
G1 X91.697 Y100.218 E14.37728
G1 X100.218 Y91.697 E14.71842
G1 X99.410 Y91.697 E14.74130
G1 X91.697 Y99.410 E15.05008
G1 X91.697 Y98.601 E15.07296
G1 X98.601 Y91.697 E15.34937
G1 X97.793 Y91.697 E15.37226
G1 X91.697 Y97.793 E15.61630
G1 X91.697 Y96.984 E15.63918
G1 X96.984 Y91.697 E15.85086
G1 X96.176 Y91.697 E15.87375
G1 X91.697 Y96.176 E16.05305
G1 X91.697 Y95.367 E16.07594
G1 X95.367 Y91.697 E16.22288
G1 X94.559 Y91.697 E16.24577
G1 X91.697 Y94.559 E16.36034
G1 X91.697 Y93.750 E16.38323
G1 X93.750 Y91.697 E16.46544
G1 X92.942 Y91.697 E16.48832
G1 X91.697 Y92.942 E16.53817
G1 X91.697 Y92.133 E16.56105
G1 X92.133 Y91.697 E16.57853
G1 Z0.650 F7800.000
G1 E14.57853 F2400.00000
G92 E0
G1 X108.529 Y108.529 F7800.000
G1 E2.00000 F2400.00000
G1 F3600
G1 X91.471 Y108.529 E2.46015
G1 X91.471 Y91.471 E2.92031
G1 X108.529 Y91.471 E3.38046
G1 X108.529 Y108.454 E3.83859
G1 X109.164 Y109.164 F7800.000
G1 F3600
G1 X90.836 Y109.164 E4.33303
G1 X90.836 Y90.836 E4.82748
G1 X109.164 Y90.836 E5.32193
G1 X109.164 Y109.089 E5.81435
G1 X109.725 Y109.725 F7800.000
G1 F3000
G1 X90.275 Y109.725 E6.21522
G1 X90.275 Y90.275 E6.61609
G1 X109.725 Y90.275 E7.01696
G1 X109.725 Y109.650 E7.41629
G1 X109.242 Y109.596 F7800.000
G1 E5.41629 F2400.00000
G92 E0
G1 X108.140 Y92.354 F7800.000
G1 E2.00000 F2400.00000
G1 F1200
G1 X107.646 Y91.860 E2.01893
G1 X106.744 Y91.860 E2.04335
G1 X108.140 Y93.256 E2.09682
G1 X108.140 Y94.158 E2.12124
G1 X105.842 Y91.860 E2.20925
G1 X104.940 Y91.860 E2.23367
G1 X108.140 Y95.060 E2.35621
G1 X108.140 Y95.962 E2.38063
G1 X104.038 Y91.860 E2.53770
G1 X103.135 Y91.860 E2.56212
G1 X108.140 Y96.865 E2.75374
G1 X108.140 Y97.767 E2.77816
G1 X102.233 Y91.860 E3.00430
G1 X101.331 Y91.860 E3.02872
G1 X108.140 Y98.669 E3.28941
G1 X108.140 Y99.571 E3.31383
G1 X100.429 Y91.860 E3.60904
G1 X99.527 Y91.860 E3.63346
G1 X108.140 Y100.473 E3.96322
G1 X108.140 Y101.375 E3.98764
G1 X98.625 Y91.860 E4.35193
G1 X97.723 Y91.860 E4.37635
G1 X108.140 Y102.277 E4.77517
G1 X108.140 Y103.179 E4.79959
G1 X96.821 Y91.860 E5.23295
G1 X95.919 Y91.860 E5.25737
G1 X108.140 Y104.081 E5.72527
G1 X108.140 Y104.983 E5.74969
G1 X95.017 Y91.860 E6.25212
G1 X94.115 Y91.860 E6.27654
G1 X108.140 Y105.885 E6.81351
G1 X108.140 Y106.787 E6.83793
G1 X93.213 Y91.860 E7.40943
G1 X92.311 Y91.860 E7.43385
G1 X108.140 Y107.689 E8.03989
G1 X108.140 Y108.140 E8.05210
G1 X107.689 Y108.140 E8.06431
G1 X91.860 Y92.311 E8.67035
G1 X91.860 Y93.213 E8.69477
G1 X106.787 Y108.140 E9.26627
G1 X105.885 Y108.140 E9.29069
G1 X91.860 Y94.115 E9.82766
G1 X91.860 Y95.017 E9.85208
G1 X104.983 Y108.140 E10.35451
G1 X104.081 Y108.140 E10.37893
G1 X91.860 Y95.919 E10.84683
G1 X91.860 Y96.821 E10.87125
G1 X103.179 Y108.140 E11.30461
G1 X102.277 Y108.140 E11.32903
G1 X91.860 Y97.723 E11.72786
G1 X91.860 Y98.625 E11.75228
G1 X101.375 Y108.140 E12.11657
G1 X100.473 Y108.140 E12.14099
G1 X91.860 Y99.527 E12.47074
G1 X91.860 Y100.429 E12.49516
G1 X99.571 Y108.140 E12.79038
G1 X98.669 Y108.140 E12.81480
G1 X91.860 Y101.331 E13.07548
G1 X91.860 Y102.233 E13.09990
G1 X97.767 Y108.140 E13.32605
G1 X96.865 Y108.140 E13.35047
G1 X91.860 Y103.135 E13.54208
G1 X91.860 Y104.038 E13.56650
G1 X95.962 Y108.140 E13.72358
G1 X95.060 Y108.140 E13.74800
G1 X91.860 Y104.940 E13.87054
G1 X91.860 Y105.842 E13.89496
G1 X94.158 Y108.140 E13.98297
G1 X93.256 Y108.140 E14.00739
G1 X91.860 Y106.744 E14.06086
G1 X91.860 Y107.646 E14.08528
G1 X92.354 Y108.140 E14.10420
G1 Z0.950 F7800.000
G1 E12.10420 F2400.00000
G92 E0
G1 X108.529 Y108.529 F7800.000
G1 E2.00000 F2400.00000
G1 F3600
G1 X91.471 Y108.529 E2.46015
G1 X91.471 Y91.471 E2.92031
G1 X108.529 Y91.471 E3.38046
G1 X108.529 Y108.454 E3.83859
G1 X109.164 Y109.164 F7800.000
G1 F3600
G1 X90.836 Y109.164 E4.33303
G1 X90.836 Y90.836 E4.82748
G1 X109.164 Y90.836 E5.32193
G1 X109.164 Y109.089 E5.81435
G1 X109.725 Y109.725 F7800.000
G1 F3000
G1 X90.275 Y109.725 E6.21522
G1 X90.275 Y90.275 E6.61609
G1 X109.725 Y90.275 E7.01696
G1 X109.725 Y109.650 E7.41629
G1 X109.242 Y109.596 F7800.000
G1 E5.41629 F2400.00000
G92 E0
G1 X107.646 Y108.140 F7800.000
G1 E2.00000 F2400.00000
G1 F1200
G1 X108.140 Y107.646 E2.01893
G1 X108.140 Y106.744 E2.04335
G1 X106.744 Y108.140 E2.09682
G1 X105.842 Y108.140 E2.12124
G1 X108.140 Y105.842 E2.20925
G1 X108.140 Y104.940 E2.23367
G1 X104.940 Y108.140 E2.35621
G1 X104.038 Y108.140 E2.38063
G1 X108.140 Y104.038 E2.53770
G1 X108.140 Y103.135 E2.56212
G1 X103.135 Y108.140 E2.75374
G1 X102.233 Y108.140 E2.77816
G1 X108.140 Y102.233 E3.00430
G1 X108.140 Y101.331 E3.02872
G1 X101.331 Y108.140 E3.28940
G1 X100.429 Y108.140 E3.31383
G1 X108.140 Y100.429 E3.60904
G1 X108.140 Y99.527 E3.63346
G1 X99.527 Y108.140 E3.96322
G1 X98.625 Y108.140 E3.98764
G1 X108.140 Y98.625 E4.35193
G1 X108.140 Y97.723 E4.37635
G1 X97.723 Y108.140 E4.77517
G1 X96.821 Y108.140 E4.79959
G1 X108.140 Y96.821 E5.23295
G1 X108.140 Y95.919 E5.25737
G1 X95.919 Y108.140 E5.72527
G1 X95.017 Y108.140 E5.74969
G1 X108.140 Y95.017 E6.25212
G1 X108.140 Y94.115 E6.27654
G1 X94.115 Y108.140 E6.81351
G1 X93.213 Y108.140 E6.83793
G1 X108.140 Y93.213 E7.40943
G1 X108.140 Y92.311 E7.43385
G1 X92.311 Y108.140 E8.03989
G1 X91.860 Y108.140 E8.05210
G1 X91.860 Y107.689 E8.06431
G1 X107.689 Y91.860 E8.67035
G1 X106.787 Y91.860 E8.69477
G1 X91.860 Y106.787 E9.26627
G1 X91.860 Y105.885 E9.29069
G1 X105.885 Y91.860 E9.82766
G1 X104.983 Y91.860 E9.85208
G1 X91.860 Y104.983 E10.35451
G1 X91.860 Y104.081 E10.37893
G1 X104.081 Y91.860 E10.84683
G1 X103.179 Y91.860 E10.87125
G1 X91.860 Y103.179 E11.30461
G1 X91.860 Y102.277 E11.32903
G1 X102.277 Y91.860 E11.72786
G1 X101.375 Y91.860 E11.75228
G1 X91.860 Y101.375 E12.11657
G1 X91.860 Y100.473 E12.14099
G1 X100.473 Y91.860 E12.47074
G1 X99.571 Y91.860 E12.49516
G1 X91.860 Y99.571 E12.79038
G1 X91.860 Y98.669 E12.81480
G1 X98.669 Y91.860 E13.07548
G1 X97.767 Y91.860 E13.09990
G1 X91.860 Y97.767 E13.32605
G1 X91.860 Y96.865 E13.35047
G1 X96.865 Y91.860 E13.54208
G1 X95.962 Y91.860 E13.56650
G1 X91.860 Y95.962 E13.72358
G1 X91.860 Y95.060 E13.74800
G1 X95.060 Y91.860 E13.87054
G1 X94.158 Y91.860 E13.89496
G1 X91.860 Y94.158 E13.98296
G1 X91.860 Y93.256 E14.00738
G1 X93.256 Y91.860 E14.06085
G1 X92.354 Y91.860 E14.08527
G1 X91.860 Y92.354 E14.10420
M106 S252.45
G1 Z1.250 F7800.000
G1 E12.10420 F2400.00000
G92 E0
G1 X108.529 Y108.529 F7800.000
G1 E2.00000 F2400.00000
G1 F3600
G1 X91.471 Y108.529 E2.46015
G1 X91.471 Y91.471 E2.92031
G1 X108.529 Y91.471 E3.38046
G1 X108.529 Y108.454 E3.83859
G1 X109.164 Y109.164 F7800.000
G1 F3600
G1 X90.836 Y109.164 E4.33303
G1 X90.836 Y90.836 E4.82748
G1 X109.164 Y90.836 E5.32193
G1 X109.164 Y109.089 E5.81435
G1 X109.725 Y109.725 F7800.000
G1 F3000
G1 X90.275 Y109.725 E6.21522
G1 X90.275 Y90.275 E6.61609
G1 X109.725 Y90.275 E7.01696
G1 X109.725 Y109.650 E7.41629
G1 X109.242 Y109.596 F7800.000
G1 E5.41629 F2400.00000
G92 E0
G1 X106.496 Y108.248 F7800.000
G1 E2.00000 F2400.00000
G1 F4800
G1 X108.016 Y102.576 E2.13974
G1 X108.248 Y102.143 F7800.000
G1 F4800
G1 X91.752 Y106.563 E2.54610
G1 E0.54610 F2400.00000
G92 E0
G1 X91.837 Y103.729 F7800.000
G1 E2.00000 F2400.00000
G1 F4800
G1 X96.271 Y108.163 E2.14920
G1 X108.163 Y108.163 E2.43216
G1 X91.837 Y91.837 E2.98154
G1 X103.729 Y91.837 E3.26450
G1 X108.163 Y96.271 E3.41370
G1 E1.41370 F2400.00000
G92 E0
G1 X108.248 Y93.437 F7800.000
G1 E2.00000 F2400.00000
G1 F4800
G1 X91.752 Y97.857 E2.40636
G1 X91.984 Y97.424 F7800.000
G1 F4800
G1 X93.504 Y91.752 E2.54610
G1 E0.54610 F2400.00000
G92 E0
G1 X102.210 Y91.752 F7800.000
G1 E2.00000 F2400.00000
G1 F4800
G1 X97.790 Y108.248 E2.40636
G1 Z1.550 F7800.000
G1 E0.40636 F2400.00000
G92 E0
G1 X108.529 Y108.529 F7800.000
G1 E2.00000 F2400.00000
G1 F3600
G1 X91.471 Y108.529 E2.46015
G1 X91.471 Y91.471 E2.92031
G1 X108.529 Y91.471 E3.38046
G1 X108.529 Y108.454 E3.83859
G1 X109.164 Y109.164 F7800.000
G1 F3600
G1 X90.836 Y109.164 E4.33303
G1 X90.836 Y90.836 E4.82748
G1 X109.164 Y90.836 E5.32193
G1 X109.164 Y109.089 E5.81435
G1 X109.725 Y109.725 F7800.000
G1 F3000
G1 X90.275 Y109.725 E6.21522
G1 X90.275 Y90.275 E6.61609
G1 X109.725 Y90.275 E7.01696
G1 X109.725 Y109.650 E7.41629
G1 X109.242 Y109.596 F7800.000
G1 E5.41629 F2400.00000
G92 E0
G1 X106.496 Y108.248 F7800.000
G1 E2.00000 F2400.00000
G1 F4800
G1 X108.016 Y102.576 E2.13974
G1 X108.248 Y102.143 F7800.000
G1 F4800
G1 X91.752 Y106.563 E2.54610
G1 E0.54610 F2400.00000
G92 E0
G1 X91.837 Y103.729 F7800.000
G1 E2.00000 F2400.00000
G1 F4800
G1 X96.271 Y108.163 E2.14920
G1 X108.163 Y108.163 E2.43216
G1 X91.837 Y91.837 E2.98154
G1 X103.729 Y91.837 E3.26450
G1 X108.163 Y96.271 E3.41370
G1 E1.41370 F2400.00000
G92 E0
G1 X108.248 Y93.437 F7800.000
G1 E2.00000 F2400.00000
G1 F4800
G1 X91.752 Y97.857 E2.40636
G1 X91.984 Y97.424 F7800.000
G1 F4800
G1 X93.504 Y91.752 E2.54610
G1 E0.54610 F2400.00000
G92 E0
G1 X102.210 Y91.752 F7800.000
G1 E2.00000 F2400.00000
G1 F4800
G1 X97.790 Y108.248 E2.40636
G1 Z1.850 F7800.000
G1 E0.40636 F2400.00000
G92 E0
G1 X108.529 Y108.529 F7800.000
G1 E2.00000 F2400.00000
G1 F3600
G1 X91.471 Y108.529 E2.46015
G1 X91.471 Y91.471 E2.92031
G1 X108.529 Y91.471 E3.38046
G1 X108.529 Y108.454 E3.83859
G1 X109.164 Y109.164 F7800.000
G1 F3600
G1 X90.836 Y109.164 E4.33303
G1 X90.836 Y90.836 E4.82748
G1 X109.164 Y90.836 E5.32193
G1 X109.164 Y109.089 E5.81435
G1 X109.725 Y109.725 F7800.000
G1 F3000
G1 X90.275 Y109.725 E6.21522
G1 X90.275 Y90.275 E6.61609
G1 X109.725 Y90.275 E7.01696
G1 X109.725 Y109.650 E7.41629
G1 X109.242 Y109.596 F7800.000
G1 E5.41629 F2400.00000
G92 E0
G1 X106.496 Y108.248 F7800.000
G1 E2.00000 F2400.00000
G1 F4800
G1 X108.016 Y102.576 E2.13974
G1 X108.248 Y102.143 F7800.000
G1 F4800
G1 X91.752 Y106.563 E2.54610
G1 E0.54610 F2400.00000
G92 E0
G1 X91.837 Y103.729 F7800.000
G1 E2.00000 F2400.00000
G1 F4800
G1 X96.271 Y108.163 E2.14920
G1 X108.163 Y108.163 E2.43216
G1 X91.837 Y91.837 E2.98154
G1 X103.729 Y91.837 E3.26450
G1 X108.163 Y96.271 E3.41370
G1 E1.41370 F2400.00000
G92 E0
G1 X108.248 Y93.437 F7800.000
G1 E2.00000 F2400.00000
G1 F4800
G1 X91.752 Y97.857 E2.40636
G1 X91.984 Y97.424 F7800.000
G1 F4800
G1 X93.504 Y91.752 E2.54610
G1 E0.54610 F2400.00000
G92 E0
G1 X102.210 Y91.752 F7800.000
G1 E2.00000 F2400.00000
G1 F4800
G1 X97.790 Y108.248 E2.40636
G1 Z2.150 F7800.000
G1 E0.40636 F2400.00000
G92 E0
G1 X108.529 Y108.529 F7800.000
G1 E2.00000 F2400.00000
G1 F3600
G1 X91.471 Y108.529 E2.46015
G1 X91.471 Y91.471 E2.92031
G1 X108.529 Y91.471 E3.38046
G1 X108.529 Y108.454 E3.83859
G1 X109.164 Y109.164 F7800.000
G1 F3600
G1 X90.836 Y109.164 E4.33303
G1 X90.836 Y90.836 E4.82748
G1 X109.164 Y90.836 E5.32193
G1 X109.164 Y109.089 E5.81435
G1 X109.725 Y109.725 F7800.000
G1 F3000
G1 X90.275 Y109.725 E6.21522
G1 X90.275 Y90.275 E6.61609
G1 X109.725 Y90.275 E7.01696
G1 X109.725 Y109.650 E7.41629
G1 X109.242 Y109.596 F7800.000
G1 E5.41629 F2400.00000
G92 E0
G1 X106.496 Y108.248 F7800.000
G1 E2.00000 F2400.00000
G1 F4800
G1 X108.016 Y102.576 E2.13974
G1 X108.248 Y102.143 F7800.000
G1 F4800
G1 X91.752 Y106.563 E2.54610
G1 E0.54610 F2400.00000
G92 E0
G1 X91.837 Y103.729 F7800.000
G1 E2.00000 F2400.00000
G1 F4800
G1 X96.271 Y108.163 E2.14920
G1 X108.163 Y108.163 E2.43216
G1 X91.837 Y91.837 E2.98154
G1 X103.729 Y91.837 E3.26450
G1 X108.163 Y96.271 E3.41370
G1 E1.41370 F2400.00000
G92 E0
G1 X108.248 Y93.437 F7800.000
G1 E2.00000 F2400.00000
G1 F4800
G1 X91.752 Y97.857 E2.40636
G1 X91.984 Y97.424 F7800.000
G1 F4800
G1 X93.504 Y91.752 E2.54610
G1 E0.54610 F2400.00000
G92 E0
G1 X102.210 Y91.752 F7800.000
G1 E2.00000 F2400.00000
G1 F4800
G1 X97.790 Y108.248 E2.40636
G1 Z2.450 F7800.000
G1 E0.40636 F2400.00000
G92 E0
G1 X108.529 Y108.529 F7800.000
G1 E2.00000 F2400.00000
G1 F3600
G1 X91.471 Y108.529 E2.46015
G1 X91.471 Y91.471 E2.92031
G1 X108.529 Y91.471 E3.38046
